X: 12907
T: Fiach
R: jig
M: 6/8
K: Dmajor
|:Aff efe|dBA dBA|A2f efe|dBA d2B|Aff efe|dBA dBA|ge/f/g fad|fde d2 B:|
|:efd eBB|dGB BAA|efd eBB|dGB A3|efd eBB|dGB BAA|ge/f/g fad|fde d2 e:|
|:fab age|fge dBA|fab age|fge d2e|fab age|fge dBA|ge/f/g fad|fde d2 B:|

